ex/vectors/893529_01.svg

<?xml version="1.0" encoding="utf-8"?>
<!-- Generator: Adobe Illustrator 22.1.0, SVG Export Plug-In . SVG Version: 6.00 Build 0)  -->
<svg version="1.1" id="Livello_1" xmlns="http://www.w3.org/2000/svg" xmlns:xlink="http://www.w3.org/1999/xlink" x="0px" y="0px"
	 viewBox="0 0 1190.6 1190.6" style="enable-background:new 0 0 1190.6 1190.6;" xml:space="preserve">
<style type="text/css">
	.st0{fill:#7BACB2;}
	.st1{fill:none;stroke:#FFFFFF;stroke-miterlimit:10;}
	.st2{fill:none;stroke:#FC5A00;stroke-miterlimit:10;}
	.st3{fill:none;stroke:#050044;stroke-miterlimit:10;}
</style>
<rect y="0" class="st0" width="1190.6" height="1190.6"/>
<title>Tavola disegno 1</title>
<path class="st1" d="M60.9,60.9h239.5v239.5H60.9V60.9z M337.3,60.9h239.5v239.5H337.3V60.9z M613.7,60.9h239.5v239.5H613.7V60.9z
	 M890.1,60.9h239.5v239.5H890.1V60.9z M60.9,337.3h239.5v239.5H60.9V337.3z M337.3,337.3h239.5v239.5H337.3V337.3z M613.7,337.3
	h239.5v239.5H613.7V337.3z M890.1,337.3h239.5v239.5H890.1V337.3z M60.9,613.7h239.5v239.5H60.9V613.7z M337.3,613.7h239.5v239.5
	H337.3V613.7z M613.7,613.7h239.5v239.5H613.7V613.7z M890.1,613.7h239.5v239.5H890.1V613.7z M60.9,890.1h239.5v239.5H60.9V890.1z
	 M337.3,890.1h239.5v239.5H337.3V890.1z M613.7,890.1h239.5v239.5H613.7V890.1z M890.1,890.1h239.5v239.5H890.1V890.1z"/>
<g id="griglia_2">
	<rect x="60.9" y="60.9" class="st2" width="184.3" height="184.3"/>
	<rect x="282" y="60.9" class="st2" width="184.3" height="184.3"/>
	<rect x="503.1" y="60.9" class="st2" width="184.3" height="184.3"/>
	<rect x="724.3" y="60.9" class="st2" width="184.3" height="184.3"/>
	<rect x="945.3" y="60.9" class="st2" width="184.3" height="184.3"/>
	<rect x="60.9" y="282" class="st2" width="184.3" height="184.3"/>
	<rect x="282" y="282" class="st2" width="184.3" height="184.3"/>
	<rect x="503.1" y="282" class="st2" width="184.3" height="184.3"/>
	<rect x="724.3" y="282" class="st2" width="184.3" height="184.3"/>
	<rect x="945.3" y="282" class="st2" width="184.3" height="184.3"/>
	<rect x="60.9" y="503.1" class="st2" width="184.3" height="184.3"/>
	<rect x="282" y="503.1" class="st2" width="184.3" height="184.3"/>
	<rect x="503.1" y="503.1" class="st2" width="184.3" height="184.3"/>
	<rect x="724.3" y="503.1" class="st2" width="184.3" height="184.3"/>
	<rect x="945.3" y="503.1" class="st2" width="184.3" height="184.3"/>
	<rect x="60.9" y="724.3" class="st2" width="184.3" height="184.3"/>
	<rect x="282" y="724.3" class="st2" width="184.3" height="184.3"/>
	<rect x="503.1" y="724.3" class="st2" width="184.3" height="184.3"/>
	<rect x="724.3" y="724.3" class="st2" width="184.3" height="184.3"/>
	<rect x="945.3" y="724.3" class="st2" width="184.3" height="184.3"/>
	<rect x="60.9" y="945.3" class="st2" width="184.3" height="184.3"/>
	<rect x="282" y="945.3" class="st2" width="184.3" height="184.3"/>
	<rect x="503.1" y="945.3" class="st2" width="184.3" height="184.3"/>
	<rect x="724.3" y="945.3" class="st2" width="184.3" height="184.3"/>
	<rect x="945.3" y="945.3" class="st2" width="184.3" height="184.3"/>
</g>
<g id="Livello_3">
	<rect x="60.9" y="60.9" class="st3" width="147.4" height="147.4"/>
	<rect x="245.2" y="60.9" class="st3" width="147.4" height="147.4"/>
	<rect x="429.5" y="60.9" class="st3" width="147.4" height="147.4"/>
	<rect x="613.7" y="60.9" class="st3" width="147.4" height="147.4"/>
	<rect x="798" y="60.9" class="st3" width="147.4" height="147.4"/>
	<rect x="982.2" y="60.9" class="st3" width="147.4" height="147.4"/>
	<rect x="60.9" y="245.2" class="st3" width="147.4" height="147.4"/>
	<rect x="245.2" y="245.2" class="st3" width="147.4" height="147.4"/>
	<rect x="429.5" y="245.2" class="st3" width="147.4" height="147.4"/>
	<rect x="613.7" y="245.2" class="st3" width="147.4" height="147.4"/>
	<rect x="798" y="245.2" class="st3" width="147.4" height="147.4"/>
	<rect x="982.2" y="245.2" class="st3" width="147.4" height="147.4"/>
	<rect x="60.9" y="429.4" class="st3" width="147.4" height="147.4"/>
	<rect x="245.2" y="429.4" class="st3" width="147.4" height="147.4"/>
	<rect x="429.5" y="429.4" class="st3" width="147.4" height="147.4"/>
	<rect x="613.7" y="429.4" class="st3" width="147.4" height="147.4"/>
	<rect x="798" y="429.4" class="st3" width="147.4" height="147.4"/>
	<rect x="982.2" y="429.4" class="st3" width="147.4" height="147.4"/>
	<rect x="60.9" y="613.7" class="st3" width="147.4" height="147.4"/>
	<rect x="245.2" y="613.7" class="st3" width="147.4" height="147.4"/>
	<rect x="429.5" y="613.7" class="st3" width="147.4" height="147.4"/>
	<rect x="613.7" y="613.7" class="st3" width="147.4" height="147.4"/>
	<rect x="798" y="613.7" class="st3" width="147.4" height="147.4"/>
	<rect x="982.2" y="613.7" class="st3" width="147.4" height="147.4"/>
	<rect x="60.9" y="798" class="st3" width="147.4" height="147.4"/>
	<rect x="245.2" y="798" class="st3" width="147.4" height="147.4"/>
	<rect x="429.5" y="798" class="st3" width="147.4" height="147.4"/>
	<rect x="613.7" y="798" class="st3" width="147.4" height="147.4"/>
	<rect x="798" y="798" class="st3" width="147.4" height="147.4"/>
	<rect x="982.2" y="798" class="st3" width="147.4" height="147.4"/>
	<rect x="60.9" y="982.2" class="st3" width="147.4" height="147.4"/>
	<rect x="245.2" y="982.2" class="st3" width="147.4" height="147.4"/>
	<rect x="429.5" y="982.2" class="st3" width="147.4" height="147.4"/>
	<rect x="613.7" y="982.2" class="st3" width="147.4" height="147.4"/>
	<rect x="798" y="982.2" class="st3" width="147.4" height="147.4"/>
	<rect x="982.2" y="982.2" class="st3" width="147.4" height="147.4"/>
</g>
<image style="overflow:visible;" width="5189" height="3050" xlink:href="893529_02.jpg"  transform="matrix(0.139 0 0 0.1347 234.8234 390.2756)">
</image>
</svg>

<svg id="Livello_1" data-name="Livello 1" xmlns="http://www.w3.org/2000/svg" viewBox="0 0 1190.6 1190.6"><defs><style>.cls-1{fill:#7bacb2;}.cls-2,.cls-3,.cls-4{fill:none;stroke-miterlimit:10;}.cls-2{stroke:#fff;}.cls-3{stroke:#fc5a00;}.cls-4{stroke:#050044;}</style></defs><title>Tavola disegno 1</title><rect class="cls-1" width="1190.6" height="1190.6"/><path class="cls-2" d="M60.9,60.9H300.4V300.4H60.9Zm276.4,0H576.8V300.4H337.3Zm276.4,0H853.2V300.4H613.7Zm276.4,0h239.5V300.4H890.1ZM60.9,337.3H300.4V576.8H60.9Zm276.4,0H576.8V576.8H337.3Zm276.4,0H853.2V576.8H613.7Zm276.4,0h239.5V576.8H890.1ZM60.9,613.7H300.4V853.2H60.9Zm276.4,0H576.8V853.2H337.3Zm276.4,0H853.2V853.2H613.7Zm276.4,0h239.5V853.2H890.1ZM60.9,890.1H300.4v239.5H60.9Zm276.4,0H576.8v239.5H337.3Zm276.4,0H853.2v239.5H613.7Zm276.4,0h239.5v239.5H890.1Z"/><g id="griglia_2" data-name="griglia 2"><rect class="cls-3" x="60.9" y="60.9" width="184.3" height="184.3"/><rect class="cls-3" x="282" y="60.9" width="184.3" height="184.3"/><rect class="cls-3" x="503.1" y="60.9" width="184.3" height="184.3"/><rect class="cls-3" x="724.3" y="60.9" width="184.3" height="184.3"/><rect class="cls-3" x="945.3" y="60.9" width="184.3" height="184.3"/><rect class="cls-3" x="60.9" y="282" width="184.3" height="184.3"/><rect class="cls-3" x="282" y="282" width="184.3" height="184.3"/><rect class="cls-3" x="503.1" y="282" width="184.3" height="184.3"/><rect class="cls-3" x="724.3" y="282" width="184.3" height="184.3"/><rect class="cls-3" x="945.3" y="282" width="184.3" height="184.3"/><rect class="cls-3" x="60.9" y="503.1" width="184.3" height="184.3"/><rect class="cls-3" x="282" y="503.1" width="184.3" height="184.3"/><rect class="cls-3" x="503.1" y="503.1" width="184.3" height="184.3"/><rect class="cls-3" x="724.3" y="503.1" width="184.3" height="184.3"/><rect class="cls-3" x="945.3" y="503.1" width="184.3" height="184.3"/><rect class="cls-3" x="60.9" y="724.3" width="184.3" height="184.3"/><rect class="cls-3" x="282" y="724.3" width="184.3" height="184.3"/><rect class="cls-3" x="503.1" y="724.3" width="184.3" height="184.3"/><rect class="cls-3" x="724.3" y="724.3" width="184.3" height="184.3"/><rect class="cls-3" x="945.3" y="724.3" width="184.3" height="184.3"/><rect class="cls-3" x="60.9" y="945.3" width="184.3" height="184.3"/><rect class="cls-3" x="282" y="945.3" width="184.3" height="184.3"/><rect class="cls-3" x="503.1" y="945.3" width="184.3" height="184.3"/><rect class="cls-3" x="724.3" y="945.3" width="184.3" height="184.3"/><rect class="cls-3" x="945.3" y="945.3" width="184.3" height="184.3"/></g><g id="Livello_3" data-name="Livello 3"><rect class="cls-4" x="60.9" y="60.9" width="147.4" height="147.4"/><rect class="cls-4" x="245.2" y="60.9" width="147.4" height="147.4"/><rect class="cls-4" x="429.5" y="60.9" width="147.4" height="147.4"/><rect class="cls-4" x="613.7" y="60.9" width="147.4" height="147.4"/><rect class="cls-4" x="798" y="60.9" width="147.4" height="147.4"/><rect class="cls-4" x="982.2" y="60.9" width="147.4" height="147.4"/><rect class="cls-4" x="60.9" y="245.2" width="147.4" height="147.4"/><rect class="cls-4" x="245.2" y="245.2" width="147.4" height="147.4"/><rect class="cls-4" x="429.5" y="245.2" width="147.4" height="147.4"/><rect class="cls-4" x="613.7" y="245.2" width="147.4" height="147.4"/><rect class="cls-4" x="798" y="245.2" width="147.4" height="147.4"/><rect class="cls-4" x="982.2" y="245.2" width="147.4" height="147.4"/><rect class="cls-4" x="60.9" y="429.4" width="147.4" height="147.4"/><rect class="cls-4" x="245.2" y="429.4" width="147.4" height="147.4"/><rect class="cls-4" x="429.5" y="429.4" width="147.4" height="147.4"/><rect class="cls-4" x="613.7" y="429.4" width="147.4" height="147.4"/><rect class="cls-4" x="798" y="429.4" width="147.4" height="147.4"/><rect class="cls-4" x="982.2" y="429.4" width="147.4" height="147.4"/><rect class="cls-4" x="60.9" y="613.7" width="147.4" height="147.4"/><rect class="cls-4" x="245.2" y="613.7" width="147.4" height="147.4"/><rect class="cls-4" x="429.5" y="613.7" width="147.4" height="147.4"/><rect class="cls-4" x="613.7" y="613.7" width="147.4" height="147.4"/><rect class="cls-4" x="798" y="613.7" width="147.4" height="147.4"/><rect class="cls-4" x="982.2" y="613.7" width="147.4" height="147.4"/><rect class="cls-4" x="60.9" y="798" width="147.4" height="147.4"/><rect class="cls-4" x="245.2" y="798" width="147.4" height="147.4"/><rect class="cls-4" x="429.5" y="798" width="147.4" height="147.4"/><rect class="cls-4" x="613.7" y="798" width="147.4" height="147.4"/><rect class="cls-4" x="798" y="798" width="147.4" height="147.4"/><rect class="cls-4" x="982.2" y="798" width="147.4" height="147.4"/><rect class="cls-4" x="60.9" y="982.2" width="147.4" height="147.4"/><rect class="cls-4" x="245.2" y="982.2" width="147.4" height="147.4"/><rect class="cls-4" x="429.5" y="982.2" width="147.4" height="147.4"/><rect class="cls-4" x="613.7" y="982.2" width="147.4" height="147.4"/><rect class="cls-4" x="798" y="982.2" width="147.4" height="147.4"/><rect class="cls-4" x="982.2" y="982.2" width="147.4" height="147.4"/></g></svg>
